www/assets/icons/voice_chat.svg

<svg xmlns="http://www.w3.org/2000/svg" width="24" height="24" viewBox="0 0 24 24" fill='currentColor'><path d="M20 2H4c-1.1 0-2 .9-2 2v18l4-4h14c1.1 0 2-.9 2-2V4c0-1.1-.9-2-2-2m0 14H6l-2 2V4h16z"/><path d="M12.75 5h-1.5v10h1.5zM10 7H8.5v6H10zM7.5 9H6v2h1.5zm8-2H14v6h1.5zM18 9h-1.5v2H18z"/></svg>

<svg width="24" height="24" viewBox="0 0 24 24" xmlns="http://www.w3.org/2000/svg" fill='currentColor'><path d="M20 2H4C2.9 2 2 2.9 2 4V22L6 18H20C21.1 18 22 17.1 22 16V4C22 2.9 21.1 2 20 2ZM20 16H6L4 18V4H20V16Z"/><path d="M12.75 5H11.25V15H12.75V5Z"/><path d="M10 7H8.5V13H10V7Z"/><path d="M7.5 9H6V11H7.5V9Z"/><path d="M15.5 7H14V13H15.5V7Z"/><path d="M18 9H16.5V11H18V9Z"/></svg>
